resources/haticons/SVG/edit_road.svg

<!-- Generated by IcoMoon.io -->
<svg version="1.1" xmlns="http://www.w3.org/2000/svg" width="24" height="24" viewBox="0 0 24 24">
<title>edit_road</title>
<path d="M18 3.984h-2.016v7.922l2.016-2.016v-5.906zM3.984 3.984h2.016v16.031h-2.016v-16.031zM9.984 3.984h2.016v4.031h-2.016v-4.031zM9.984 9.984h2.016v4.031h-2.016v-4.031zM9.984 15.984h2.016v4.031h-2.016v-4.031zM22.547 12.609l-1.125-1.172q-0.469-0.422-1.078-0.422t-1.031 0.422l-5.297 5.297v3.281h3.234l5.297-5.297q0.469-0.469 0.469-1.078t-0.469-1.031zM16.594 18.469h-1.031v-1.031l3.422-3.469 1.031 1.031z"></path>
</svg>

<svg xmlns="http://www.w3.org/2000/svg" width="24" height="24"><path d="M18 3.984h-2.016v7.922L18 9.89V3.984zm-14.016 0H6v16.031H3.984V3.984zm6 0H12v4.031H9.984V3.984zm0 6H12v4.031H9.984V9.984zm0 6H12v4.031H9.984v-4.031zm12.563-3.375l-1.125-1.172q-.469-.422-1.078-.422t-1.031.422l-5.297 5.297v3.281h3.234l5.297-5.297q.469-.469.469-1.078t-.469-1.031zm-5.953 5.86h-1.031v-1.031l3.422-3.469L20.016 15z"/></svg>
